modules/themify-icons/icons/info-alt.svg

<?xml version="1.0" encoding="utf-8"?>
<!-- Generated by IcoMoon.io -->
<!DOCTYPE svg PUBLIC "-//W3C//DTD SVG 1.1//EN" "http://www.w3.org/Graphics/SVG/1.1/DTD/svg11.dtd">
<svg version="1.1" xmlns="http://www.w3.org/2000/svg" xmlns:xlink="http://www.w3.org/1999/xlink" width="17" height="17" viewBox="0 0 17 17">
<g>
</g>
	<path d="M8.5 0c-4.687 0-8.5 3.813-8.5 8.5s3.813 8.5 8.5 8.5 8.5-3.813 8.5-8.5-3.813-8.5-8.5-8.5zM8.5 16c-4.136 0-7.5-3.364-7.5-7.5s3.364-7.5 7.5-7.5 7.5 3.364 7.5 7.5-3.364 7.5-7.5 7.5zM9 12.369h0.979v1h-2.958v-1h0.979v-4.42h-0.946v-1h1.946v5.42zM7.185 4.986c0-0.545 0.441-0.986 0.986-0.986s0.985 0.441 0.985 0.986c0 0.543-0.44 0.984-0.985 0.984s-0.986-0.441-0.986-0.984z" fill="#000000" />
</svg>

<svg xmlns="http://www.w3.org/2000/svg" width="17" height="17" viewBox="0 0 17 17"><path d="M8.5 0C3.813 0 0 3.813 0 8.5S3.813 17 8.5 17 17 13.187 17 8.5 13.187 0 8.5 0zm0 16C4.364 16 1 12.636 1 8.5S4.364 1 8.5 1 16 4.364 16 8.5 12.636 16 8.5 16zm.5-3.631h.979v1H7.021v-1H8v-4.42h-.946v-1H9v5.42zM7.185 4.986a.985.985 0 111.97-.001.985.985 0 01-1.97.001z"/></svg>
